public/images/flags/en.svg

<?xml version="1.0" encoding="UTF-8"?>
<svg enable-background="new 0 0 341.59 203.057" viewBox="0 0 341.59 203.057" xmlns="http://www.w3.org/2000/svg">
 <path d="m0.063 0h341.47v202.17h-341.47z" fill="#fff"/>
 <path d="m.063,12" fill="#ffffbd"/>
 <path d="m36.323 49.445" fill="#f00"/>
 <path d="m.063,20v56.5h96z" fill="#13135f"/>
 <path d="m109.91 76.5h19.652l-129.5-76.5v12z" fill="#f00"/>
 <path d="m37.916 0 109.65 67.486v-67.486z" fill="#12145b"/>
 <path d="m341.56 182v-56h-95z" fill="#13135f"/>
 <path d="m232.72 126h-19.652l128.5 76.125v-12.125z" fill="#f00"/>
 <path d="m304.68 203-109.65-67.486v67.486z" fill="#12145b"/>
 <path d="m341.56 20.513v55.987l-95-0.068z" fill="#13135f"/>
 <path d="m195.06 76.5h22.298l124.2-76.5h-22.554z" fill="#f00"/>
 <path d="m303.75 0-108.69 66.986v-66.986z" fill="#12145b"/>
 <path d="m0.071 182.48v-56.5h96z" fill="#13135f"/>
 <path d="m147.52 125.97h-22.299l-125.22 77.088h22.572z" fill="#f00"/>
 <path d="m37.87 202.97 109.65-67.486v67.486z" fill="#12145b"/>
 <path d="m156.72 0h28.874v203h-28.874z" fill="#f00"/>
 <path d="m0.063 85.252h341.53v32.672h-341.53z" fill="#f00"/>
</svg>

<svg xmlns="http://www.w3.org/2000/svg" viewBox="0 0 341.59 203.057"><path fill="#fff" d="M.063 0h341.47v202.17H.063z"/><path fill="#13135f" d="M.063 20v56.5h96z"/><path fill="red" d="M109.91 76.5h19.652L.062 0v12z"/><path fill="#12145b" d="M37.916 0l109.65 67.486V0z"/><path fill="#13135f" d="M341.56 182v-56h-95z"/><path fill="red" d="M232.72 126h-19.652l128.5 76.125V190z"/><path fill="#12145b" d="M304.68 203l-109.65-67.486V203z"/><path fill="#13135f" d="M341.56 20.513V76.5l-95-.068z"/><path fill="red" d="M195.06 76.5h22.298L341.558 0h-22.554z"/><path fill="#12145b" d="M303.75 0L195.06 66.986V0z"/><path fill="#13135f" d="M.071 182.48v-56.5h96z"/><path fill="red" d="M147.52 125.97h-22.299L.001 203.058h22.572z"/><path fill="#12145b" d="M37.87 202.97l109.65-67.486v67.486z"/><path fill="red" d="M156.72 0h28.874v203H156.72z"/><path fill="red" d="M.063 85.252h341.53v32.672H.063z"/></svg>
